SVG_Azure_Grouped/Compute/Azure VMware Solution Virtual Machine.svg

<?xml version="1.0" encoding="UTF-8" standalone="no"?>
<!-- Generated by Microsoft Visio, SVG Export Azure VMware Solution Virtual Machine.svg Page-1 -->

<svg
   xmlns:dc="http://purl.org/dc/elements/1.1/"
   xmlns:cc="http://creativecommons.org/ns#"
   xmlns:rdf="http://www.w3.org/1999/02/22-rdf-syntax-ns#"
   xmlns:svg="http://www.w3.org/2000/svg"
   xmlns="http://www.w3.org/2000/svg"
   xmlns:sodipodi="http://sodipodi.sourceforge.net/DTD/sodipodi-0.dtd"
   xmlns:inkscape="http://www.inkscape.org/namespaces/inkscape"
   width="0.78735918in"
   height="0.74803692in"
   viewBox="0 0 56.689769 53.858799"
   xml:space="preserve"
   class="st6"
   version="1.1"
   id="svg63"
   sodipodi:docname="Azure VMware Solution Virtual Machine.svg"
   style="font-size:12px;overflow:visible;color-interpolation-filters:sRGB;fill:none;fill-rule:evenodd;stroke-linecap:square;stroke-miterlimit:3"
   inkscape:version="0.92.5 (2060ec1f9f, 2020-04-08)"><metadata
   id="metadata67"><rdf:RDF><cc:Work
       rdf:about=""><dc:format>image/svg+xml</dc:format><dc:type
         rdf:resource="http://purl.org/dc/dcmitype/StillImage" /></cc:Work></rdf:RDF></metadata><sodipodi:namedview
   pagecolor="#ffffff"
   bordercolor="#666666"
   borderopacity="1"
   objecttolerance="10"
   gridtolerance="10"
   guidetolerance="10"
   inkscape:pageopacity="0"
   inkscape:pageshadow="2"
   inkscape:window-width="640"
   inkscape:window-height="480"
   id="namedview65"
   showgrid="false"
   inkscape:zoom="1.4523234"
   inkscape:cx="37.795243"
   inkscape:cy="35.889642"
   inkscape:window-x="0"
   inkscape:window-y="0"
   inkscape:window-maximized="0"
   inkscape:current-layer="svg63" />
	<style
   type="text/css"
   id="style2">
	<![CDATA[
		.st1 {fill:url(#grad0-6);stroke:none;stroke-linecap:butt;stroke-width:34}
		.st2 {fill:#ffffff;stroke:none;stroke-linecap:butt;stroke-width:34}
		.st3 {fill:#ffffff;fill-opacity:0.8;stroke:none;stroke-linecap:butt;stroke-width:34}
		.st4 {fill:#ffffff;fill-opacity:0.6;stroke:none;stroke-linecap:butt;stroke-width:34}
		.st5 {fill:url(#grad0-21);stroke:none;stroke-linecap:butt;stroke-width:34}
		.st6 {fill:none;fill-rule:evenodd;font-size:12px;overflow:visible;stroke-linecap:square;stroke-miterlimit:3}
	]]>
	</style>

	<defs
   id="Patterns_And_Gradients">
		<linearGradient
   id="grad0-6"
   x1="-3.7423339e-06"
   y1="100.28604"
   x2="46.929804"
   y2="100.28604"
   gradientTransform="scale(1.2079745,0.82783207)"
   gradientUnits="userSpaceOnUse">
			<stop
   offset="0"
   stop-color="#76bc2d"
   stop-opacity="1"
   id="stop4" />
			<stop
   offset="0.815"
   stop-color="#86d633"
   stop-opacity="1"
   id="stop6" />
		</linearGradient>
		<linearGradient
   id="grad0-21"
   x1="0"
   y1="146.92196"
   x2="20.621591"
   y2="146.92196"
   gradientTransform="scale(1.3747727,0.72739297)"
   gradientUnits="userSpaceOnUse">
			<stop
   offset="0.15"
   stop-color="#cccccc"
   stop-opacity="1"
   id="stop9" />
			<stop
   offset="1"
   stop-color="#707070"
   stop-opacity="1"
   id="stop11" />
		</linearGradient>
	</defs>
	<g
   id="g61"
   transform="translate(-34.000257,-33.9955)">
		<title
   id="title15">Page-1</title>
		<g
   id="group11733-1"
   transform="translate(34,-34.0157)">
			<title
   id="title17">Azure VMware Solution Virtual Machine.11733</title>
			<g
   id="group11734-2">
				<title
   id="title19">Sheet.11734</title>
				<g
   id="shape11735-3"
   transform="translate(0,-15.0088)">
					<title
   id="title21">Sheet.11735</title>
					<path
   d="m 0,119.93 a 1.89296,1.94575 -180 0 0 1.89,1.94 H 54.8 a 1.89296,1.94575 -180 0 0 1.89,-1.94 V 84.97 A 1.89296,1.94575 -180 0 0 54.8,83.02 H 1.89 A 1.89296,1.94575 -180 0 0 0,84.97 Z"
   class="st1"
   id="path23"
   inkscape:connector-curvature="0"
   style="fill:url(#grad0-6);stroke:none;stroke-width:34;stroke-linecap:butt" />
				</g>
				<g
   id="group11736-7"
   transform="translate(18.8913,-23.1025)">
					<title
   id="title26">Sheet.11736</title>
					<g
   id="shape11737-8"
   transform="translate(0.00629921,-11.3019)">
						<title
   id="title28">Sheet.11737</title>
						<path
   d="M 18.9,116.2 9.45,121.87 0,116.19 9.45,110.51 Z"
   class="st2"
   id="path30"
   inkscape:connector-curvature="0"
   style="fill:#ffffff;stroke:none;stroke-width:34;stroke-linecap:butt" />
					</g>
					<g
   id="shape11738-10"
   transform="translate(0.00629921,-5.67849)">
						<title
   id="title33">Sheet.11738</title>
						<path
   d="m 0,110.57 v 11.3 l 9.44,-5.63 z"
   class="st3"
   id="path35"
   inkscape:connector-curvature="0"
   style="fill:#ffffff;fill-opacity:0.8;stroke:none;stroke-width:34;stroke-linecap:butt" />
					</g>
					<g
   id="shape11739-12"
   transform="translate(0,-0.00323745)">
						<title
   id="title38">Sheet.11739</title>
						<path
   d="m 0,116.2 9.45,5.67 v -11.3 l -0.01,-0.01 z"
   class="st2"
   id="path40"
   inkscape:connector-curvature="0"
   style="fill:#ffffff;stroke:none;stroke-width:34;stroke-linecap:butt" />
					</g>
					<g
   id="shape11740-14"
   transform="translate(9.45512,-5.67849)">
						<title
   id="title43">Sheet.11740</title>
						<path
   d="m 0,116.23 9.45,5.64 v -11.3 z"
   class="st4"
   id="path45"
   inkscape:connector-curvature="0"
   style="fill:#ffffff;fill-opacity:0.6;stroke:none;stroke-width:34;stroke-linecap:butt" />
					</g>
					<g
   id="shape11741-16"
   transform="translate(9.45512)">
						<title
   id="title48">Sheet.11741</title>
						<path
   d="M 0,121.87 9.45,116.2 0,110.56 Z"
   class="st3"
   id="path50"
   inkscape:connector-curvature="0"
   style="fill:#ffffff;fill-opacity:0.8;stroke:none;stroke-width:34;stroke-linecap:butt" />
					</g>
				</g>
				<g
   id="shape11742-18"
   transform="translate(14.1732)">
					<title
   id="title54">Sheet.11742</title>
					<path
   d="m 25.53,118.62 c -5.6,-0.9 -5.82,-5.06 -5.8,-11.75 H 8.6 c 0,6.69 -0.2,10.85 -5.8,11.75 A 3.30079,3.39285 -180 0 0 0,121.87 h 28.35 a 3.31654,3.40904 -180 0 0 -2.82,-3.25 z"
   class="st5"
   id="path56"
   inkscape:connector-curvature="0"
   style="fill:url(#grad0-21);stroke:none;stroke-width:34;stroke-linecap:butt" />
				</g>
			</g>
		</g>
	</g>
</svg>

<?xml version="1.0" encoding="UTF-8" standalone="no"?>
<!DOCTYPE svg PUBLIC "-//W3C//DTD SVG 1.1//EN" "http://www.w3.org/Graphics/SVG/1.1/DTD/svg11.dtd">
<!-- Generated by Microsoft Visio, SVG Export Azure VMware Solution Virtual Machine.svg Page-1 -->
<svg xmlns="http://www.w3.org/2000/svg" xmlns:xlink="http://www.w3.org/1999/xlink" xmlns:ev="http://www.w3.org/2001/xml-events"
		width="1.73185in" height="1.69269in" viewBox="0 0 124.693 121.874" xml:space="preserve" color-interpolation-filters="sRGB"
		class="st6">
	<style type="text/css">
	<![CDATA[
		.st1 {fill:url(#grad0-6);stroke:none;stroke-linecap:butt;stroke-width:34}
		.st2 {fill:#ffffff;stroke:none;stroke-linecap:butt;stroke-width:34}
		.st3 {fill:#ffffff;fill-opacity:0.8;stroke:none;stroke-linecap:butt;stroke-width:34}
		.st4 {fill:#ffffff;fill-opacity:0.6;stroke:none;stroke-linecap:butt;stroke-width:34}
		.st5 {fill:url(#grad0-21);stroke:none;stroke-linecap:butt;stroke-width:34}
		.st6 {fill:none;fill-rule:evenodd;font-size:12px;overflow:visible;stroke-linecap:square;stroke-miterlimit:3}
	]]>
	</style>

	<defs id="Patterns_And_Gradients">
		<linearGradient id="grad0-6" x1="0" y1="0" x2="1" y2="0" gradientTransform="rotate(-90 0.5 0.5)">
			<stop offset="0" stop-color="#76bc2d" stop-opacity="1"/>
			<stop offset="0.815" stop-color="#86d633" stop-opacity="1"/>
		</linearGradient>
		<linearGradient id="grad0-21" x1="0" y1="0" x2="1" y2="0" gradientTransform="rotate(-90 0.5 0.5)">
			<stop offset="0.15" stop-color="#cccccc" stop-opacity="1"/>
			<stop offset="1" stop-color="#707070" stop-opacity="1"/>
		</linearGradient>
	</defs>
	<g>
		<title>Page-1</title>
		<g id="group11454-1" transform="translate(34,-34.0157)">
			<title>Azure VMware Solution Virtual Machine.11454</title>
			<g id="group11455-2">
				<title>Sheet.11455</title>
				<g id="shape11456-3" transform="translate(0,-15.0088)">
					<title>Sheet.11456</title>
					<path d="M0 119.93 A1.89296 1.94575 -180 0 0 1.89 121.87 L54.8 121.87 A1.89296 1.94575 -180 0 0 56.69 119.93
								 L56.69 84.97 A1.89296 1.94575 -180 0 0 54.8 83.02 L1.89 83.02 A1.89296 1.94575 -180 0 0 0 84.97
								 L0 119.93 Z" class="st1"/>
				</g>
				<g id="group11457-7" transform="translate(18.8913,-23.1025)">
					<title>Sheet.11457</title>
					<g id="shape11458-8" transform="translate(0.00629921,-11.3019)">
						<title>Sheet.11458</title>
						<path d="M18.9 116.2 L9.45 121.87 L0 116.19 L9.45 110.51 L18.9 116.2 Z" class="st2"/>
					</g>
					<g id="shape11459-10" transform="translate(0.00629921,-5.67849)">
						<title>Sheet.11459</title>
						<path d="M0 110.57 L0 121.87 L9.44 116.24 L0 110.57 Z" class="st3"/>
					</g>
					<g id="shape11460-12" transform="translate(0,-0.00323745)">
						<title>Sheet.11460</title>
						<path d="M0 116.2 L9.45 121.87 L9.45 110.57 L9.44 110.56 L0 116.2 Z" class="st2"/>
					</g>
					<g id="shape11461-14" transform="translate(9.45512,-5.67849)">
						<title>Sheet.11461</title>
						<path d="M0 116.23 L9.45 121.87 L9.45 110.57 L0 116.23 Z" class="st4"/>
					</g>
					<g id="shape11462-16" transform="translate(9.45512,-1.13687E-13)">
						<title>Sheet.11462</title>
						<path d="M0 121.87 L9.45 116.2 L0 110.56 L0 121.87 Z" class="st3"/>
					</g>
				</g>
				<g id="shape11463-18" transform="translate(14.1732,2.70006E-13)">
					<title>Sheet.11463</title>
					<path d="M25.53 118.62 C19.93 117.72 19.71 113.56 19.73 106.87 L8.6 106.87 C8.6 113.56 8.4 117.72 2.8 118.62
								 A3.30079 3.39285 -180 0 0 -0 121.87 L28.35 121.87 A3.31654 3.40904 -180 0 0 25.53 118.62 Z"
							class="st5"/>
				</g>
			</g>
		</g>
	</g>
</svg>
